packages/kaspersky-hexa-ui-icons/src/iconsSVGs/64x42/FlagEg.svg

<svg xmlns="http://www.w3.org/2000/svg" width="64" height="42" fill="none" viewBox="0 0 64 42"><g clip-path="url(#a)"><rect width="64" height="42" fill="#fff" rx="5"/><path fill="#e41d33" fill-rule="evenodd" d="M0 14h64V0H0z" clip-rule="evenodd"/><path fill="#262626" fill-rule="evenodd" d="M0 42h64V28H0z" clip-rule="evenodd"/><mask id="b" fill="#fff"><path fill-rule="evenodd" d="M26.21 18.2c0-.7732.6268-1.4 1.4-1.4h.9673a.7.7 0 0 1 .6261.387L30.41 19.6s1.5381-2.8 2.8-2.8c1.4 0 2.8 2.8 2.8 2.8l1.2065-2.413a.7.7 0 0 1 .6261-.387h.9674c.7732 0 1.4.6268 1.4 1.4v4.3841c0 1.1182-1.2462 1.7851-2.1766 1.1649L36.01 22.4h-1.4v1.4c0 .7732-.6268 1.4-1.4 1.4s-1.4-.6268-1.4-1.4v-1.4h-1.4l-2.0235 1.349c-.9303.6202-2.1765-.0467-2.1765-1.1649z" clip-rule="evenodd"/></mask><path stroke="#c6a846" stroke-width="3" d="M26.21 18.2c0-.7732.6268-1.4 1.4-1.4h.9673a.7.7 0 0 1 .6261.387L30.41 19.6s1.5381-2.8 2.8-2.8c1.4 0 2.8 2.8 2.8 2.8l1.2065-2.413a.7.7 0 0 1 .6261-.387h.9674c.7732 0 1.4.6268 1.4 1.4v4.3841c0 1.1182-1.2462 1.7851-2.1766 1.1649L36.01 22.4h-1.4v1.4c0 .7732-.6268 1.4-1.4 1.4s-1.4-.6268-1.4-1.4v-1.4h-1.4l-2.0235 1.349c-.9303.6202-2.1765-.0467-2.1765-1.1649z" clip-rule="evenodd" mask="url(#b)"/></g><defs><clipPath id="a"><rect width="64" height="42" fill="#fff" rx="5"/></clipPath></defs></svg>

<svg width="64" height="42" viewBox="0 0 64 42" fill="none" xmlns="http://www.w3.org/2000/svg">
<g clip-path="url(#clip0_37941_2233)">
<rect width="64" height="42" rx="5" fill="white"/>
<path fill-rule="evenodd" clip-rule="evenodd" d="M0 14H64V0H0V14Z" fill="#E41D33"/>
<path fill-rule="evenodd" clip-rule="evenodd" d="M0 42H64V28H0V42Z" fill="#262626"/>
<mask id="path-4-inside-1_37941_2233" fill="white">
<path fill-rule="evenodd" clip-rule="evenodd" d="M26.21 18.2C26.21 17.4268 26.8368 16.8 27.61 16.8H28.5773C28.8425 16.8 29.0849 16.9498 29.2034 17.187L30.41 19.6C30.41 19.6 31.9481 16.8 33.21 16.8C34.61 16.8 36.01 19.6 36.01 19.6L37.2165 17.187C37.3351 16.9498 37.5775 16.8 37.8426 16.8H38.81C39.5832 16.8 40.21 17.4268 40.21 18.2V22.5841C40.21 23.7023 38.9638 24.3692 38.0334 23.749L36.01 22.4H34.61V23.8C34.61 24.5732 33.9832 25.2 33.21 25.2C32.4368 25.2 31.81 24.5732 31.81 23.8V22.4H30.41L28.3865 23.749C27.4562 24.3692 26.21 23.7023 26.21 22.5841V18.2Z"/>
</mask>
<path fill-rule="evenodd" clip-rule="evenodd" d="M26.21 18.2C26.21 17.4268 26.8368 16.8 27.61 16.8H28.5773C28.8425 16.8 29.0849 16.9498 29.2034 17.187L30.41 19.6C30.41 19.6 31.9481 16.8 33.21 16.8C34.61 16.8 36.01 19.6 36.01 19.6L37.2165 17.187C37.3351 16.9498 37.5775 16.8 37.8426 16.8H38.81C39.5832 16.8 40.21 17.4268 40.21 18.2V22.5841C40.21 23.7023 38.9638 24.3692 38.0334 23.749L36.01 22.4H34.61V23.8C34.61 24.5732 33.9832 25.2 33.21 25.2C32.4368 25.2 31.81 24.5732 31.81 23.8V22.4H30.41L28.3865 23.749C27.4562 24.3692 26.21 23.7023 26.21 22.5841V18.2Z" fill="#F4B32E" fill-opacity="0.25" stroke="#C6A846" stroke-width="2.8" mask="url(#path-4-inside-1_37941_2233)"/>
</g>
<defs>
<clipPath id="clip0_37941_2233">
<rect width="64" height="42" rx="5" fill="white"/>
</clipPath>
</defs>
</svg>
